;Sliced by ideaMaker 5.0.6.8380, 2024-07-27 19:47:57 UTC-0300
;Slicer Version: 5.0.6.8380
;Dimension: 305.000 305.000 605.000 0.400 0.400
;Plate Shape: 0
;Origin Center: 0
;Extruder Offset #1: 0.000 0.000
;Filament Diameter #1: 1.750
;Filament Diameter #2: 1.750
;Filament Compensation #1: 90.00
;Filament Compensation #2: 90.00
;Filament Density #1: 1240.00
;Filament Density #2: 1240.00
;Filament Type #1: PLA
;Filament Type #2: PLA
;Filament Name #1: [Raise3D] Premium PLA 1.75mm
;Filament Name #2: [Raise3D] Premium PLA 1.75mm
;Firmware: Raise3D Pro2
;Bounding Box: 125.092 179.592 95.738 209.138 0.000 24.320
;Model Gap: 0.150
M221 T0 S90.00
M140 S60.00
M104 T0 S205.00
M109 T0 S205.00
T0
M190 S60.00
G21
G90
M82
M107
G28 X0 Y0
G28 Z0
G1 Z15.0 F300
G92 E0
G1 F140 E29
G1 X20 Y0 F140 E30
G92 E0
G1 F6000.0
M117 Printing...
M1001
;TOTAL_NUM: 1
;PRINTING_TIME: 0
;REMAINING_TIME: 10193
M106 S0
;LAYER:-2
;Z:0.500
;HEIGHT:0.500
;PRINTING: NON-OBJECT
;PRINTING_ID: -1
G0 F6000 X142.725 Y100.602
G0 F300 Z0.500
;TYPE:RAFT
;WIDTH:0.800
G1 F480 X143.164 Y100.053 E0.1169
G1 X143.536 Y99.696 E0.2026
G1 X143.815 Y99.477 E0.2616
G1 X144.602 Y98.962 E0.4180
G1 X145.654 Y98.166 E0.6374
G1 X146.077 Y97.884 E0.7220
G1 X146.356 Y97.730 E0.7750
G1 X148.129 Y96.848 E1.1043
G1 X148.642 Y96.640 E1.1963
G1 X149.188 Y96.486 E1.2907
G1 X150.391 Y96.238 E1.4950
G1 X150.901 Y96.164 E1.5807
G1 X151.376 Y96.138 E1.6598
G1 X154.355 Y96.138 E2.1552
G1 X154.832 Y96.163 E2.2346
G1 X155.539 Y96.279 E2.3538
G1 X156.145 Y96.470 E2.4594
G1 X156.596 Y96.667 E2.5413
G1 X158.701 Y97.718 E2.9325
G1 X159.250 Y98.041 E3.0385
G1 X160.201 Y98.748 E3.2355
G1 X160.597 Y99.063 E3.3197
G1 X162.239 Y100.693 E3.7044
G1 X162.603 Y101.114 E3.7970
G1 X162.899 Y101.553 E3.8850
G1 X163.221 Y102.180 E4.0023
G1 X163.377 Y102.612 E4.0786
G1 X163.539 Y102.990 E4.1470
G1 X164.215 Y104.354 E4.4002
G1 X164.592 Y105.449 E4.5928
G1 X164.908 Y106.733 E4.8127
G1 X164.977 Y107.164 E4.8853
G1 X165.109 Y107.737 E4.9831
G1 X165.177 Y108.164 E5.0550
G1 X165.309 Y108.737 E5.1528
G1 X165.377 Y109.164 E5.2247
G1 X165.509 Y109.737 E5.3225
G1 X165.577 Y110.164 E5.3944
G1 X165.709 Y110.737 E5.4921
G1 X165.777 Y111.164 E5.5640
G1 X165.909 Y111.737 E5.6618
G1 X165.977 Y112.164 E5.7337
G1 X166.109 Y112.737 E5.8315
G1 X166.177 Y113.164 E5.9034
G1 X166.308 Y113.731 E6.0002
G1 X166.377 Y114.164 E6.0731
G1 X166.509 Y114.737 E6.1709
G1 X166.577 Y115.164 E6.2428
G1 X166.709 Y115.737 E6.3406
G1 X166.777 Y116.164 E6.4125
G1 X166.909 Y116.737 E6.5103
G1 X166.977 Y117.164 E6.5822
G1 X167.109 Y117.737 E6.6800
G1 X167.177 Y118.164 E6.7519
G1 X167.309 Y118.738 E6.8498
G1 X167.377 Y119.160 E6.9209
G1 X167.703 Y120.706 E7.1837
G1 X167.780 Y121.292 E7.2820
G1 X167.936 Y122.094 E7.4178
G1 X168.041 Y122.843 E7.5436
G1 X168.333 Y124.276 E7.7868
G1 X168.379 Y124.689 E7.8559
G1 X168.534 Y125.484 E7.9906
G1 X168.579 Y125.885 E8.0577
G1 X168.656 Y126.306 E8.1289
G1 X169.308 Y128.933 E8.5790
G1 X169.377 Y129.364 E8.6516
G1 X169.505 Y129.921 E8.7467
G1 X169.580 Y130.490 E8.8421
G1 X169.778 Y131.564 E9.0237
G1 X170.104 Y133.112 E9.2868
G1 X170.241 Y134.044 E9.4435
G1 X170.616 Y135.906 E9.7593
G1 X170.993 Y137.051 E9.9598
G1 X171.308 Y138.333 E10.1793
G1 X171.377 Y138.764 E10.2519
G1 X171.508 Y139.331 E10.3487
G1 X171.577 Y139.764 E10.4216
G1 X171.703 Y140.313 E10.5153
G1 X171.780 Y140.890 E10.6121
G1 X171.978 Y141.968 E10.7944
G1 X172.109 Y142.537 E10.8915
G1 X172.177 Y142.964 E10.9634
G1 X172.308 Y143.533 E11.0605
G1 X172.414 Y144.133 E11.1618
G1 X172.681 Y145.204 E11.3454
G1 X172.736 Y145.541 E11.4021
G1 X172.910 Y146.342 E11.5385
G1 X172.977 Y146.764 E11.6095
G1 X173.109 Y147.337 E11.7073
G1 X173.177 Y147.764 E11.7792
G1 X173.309 Y148.337 E11.8770
G1 X173.377 Y148.764 E11.9489
G1 X173.509 Y149.337 E12.0467
G1 X173.577 Y149.764 E12.1186
G1 X173.709 Y150.337 E12.2164
G1 X173.777 Y150.764 E12.2883
G1 X173.909 Y151.337 E12.3861
G1 X173.977 Y151.764 E12.4580
G1 X174.109 Y152.337 E12.5558
G1 X174.177 Y152.764 E12.6277
G1 X174.309 Y153.337 E12.7255
G1 X174.377 Y153.764 E12.7974
G1 X174.509 Y154.337 E12.8951
G1 X174.577 Y154.764 E12.9671
G1 X174.709 Y155.337 E13.0648
G1 X174.777 Y155.764 E13.1367
G1 X174.909 Y156.337 E13.2345
G1 X174.977 Y156.764 E13.3064
G1 X175.109 Y157.337 E13.4042
G1 X175.177 Y157.764 E13.4761
G1 X175.309 Y158.337 E13.5739
G1 X175.377 Y158.764 E13.6458
G1 X175.509 Y159.337 E13.7436
G1 X175.577 Y159.764 E13.8155
G1 X175.709 Y160.337 E13.9133
G1 X175.777 Y160.764 E13.9852
G1 X175.909 Y161.337 E14.0830
G1 X175.977 Y161.764 E14.1549
G1 X176.109 Y162.337 E14.2527
G1 X176.177 Y162.764 E14.3246
G1 X176.309 Y163.337 E14.4224
G1 X176.377 Y163.764 E14.4943
G1 X176.509 Y164.337 E14.5921
G1 X176.577 Y164.764 E14.6640
G1 X176.709 Y165.337 E14.7617
G1 X176.777 Y165.764 E14.8337
G1 X176.909 Y166.337 E14.9314
G1 X176.977 Y166.763 E15.0032
G1 X177.105 Y167.321 E15.0984
G1 X177.180 Y167.890 E15.1938
G1 X177.378 Y168.968 E15.3761
G1 X177.509 Y169.537 E15.4732
G1 X177.577 Y169.964 E15.5451
G1 X177.709 Y170.537 E15.6429
G1 X177.777 Y170.964 E15.7148
G1 X177.909 Y171.537 E15.8126
G1 X177.977 Y171.964 E15.8845
G1 X178.109 Y172.537 E15.9823
G1 X178.177 Y172.964 E16.0542
G1 X178.309 Y173.537 E16.1520
G1 X178.377 Y173.964 E16.2239
G1 X178.509 Y174.537 E16.3217
G1 X178.577 Y174.964 E16.3936
G1 X178.708 Y175.533 E16.4907
G1 X178.813 Y176.132 E16.5918
G1 X179.106 Y177.328 E16.7966
G1 X179.178 Y177.878 E16.8888
G1 X179.192 Y178.205 E16.9432
G1 X179.192 Y185.421 E18.1433
G1 X179.146 Y186.101 E18.2566
G1 X179.090 Y186.431 E18.3123
G1 X178.808 Y187.581 E18.5092
G1 X178.668 Y188.336 E18.6369
G1 X178.431 Y189.292 E18.8007
G1 X177.894 Y190.921 E19.0859
G1 X177.558 Y191.725 E19.2308
G1 X177.231 Y192.682 E19.3990
G1 X175.758 Y195.632 E19.9474
G1 X175.181 Y196.520 E20.1235
G1 X174.476 Y197.458 E20.3186
G1 X174.164 Y197.942 E20.4144
G1 X173.216 Y199.191 E20.6751
G1 X170.018 Y202.405 E21.4292
G1 X169.519 Y202.841 E21.5394
G1 X168.554 Y203.499 E21.7336
G1 X168.019 Y203.917 E21.8465
G1 X167.696 Y204.137 E21.9115
G1 X165.977 Y205.284 E22.2552
G1 X165.509 Y205.556 E22.3452
G1 X163.886 Y206.366 E22.6468
G1 X163.254 Y206.633 E22.7609
G1 X161.315 Y207.285 E23.1011
G1 X160.347 Y207.674 E23.2746
G1 X159.106 Y208.083 E23.4919
G1 X157.722 Y208.435 E23.7294
G1 X156.580 Y208.658 E23.9229
G1 X156.041 Y208.725 E24.0132
G1 X155.697 Y208.738 E24.0705
G1 X150.586 Y208.737 E24.9204
G1 X149.911 Y208.693 E25.0329
G1 X148.250 Y208.482 E25.3114
G1 X147.686 Y208.376 E25.4068
G1 X147.080 Y208.224 E25.5107
G1 X146.165 Y208.039 E25.6660
G1 X145.690 Y207.918 E25.7475
G1 X144.596 Y207.493 E25.9426
G1 X143.843 Y207.239 E26.0748
G1 X142.960 Y206.881 E26.2333
G1 X142.248 Y206.641 E26.3582
G1 X141.351 Y206.277 E26.5192
G1 X140.590 Y206.024 E26.6526
G1 X140.048 Y205.798 E26.7502
G1 X139.664 Y205.592 E26.8227
G1 X138.730 Y204.967 E27.0096
G1 X137.830 Y204.433 E27.1836
G1 X136.928 Y203.756 E27.3712
G1 X136.439 Y203.440 E27.4680
G1 X135.469 Y202.712 E27.6697
G1 X134.885 Y202.329 E27.7858
G1 X134.579 Y202.092 E27.8502
G1 X134.282 Y201.821 E27.9170
G1 X132.848 Y200.385 E28.2545
G1 X132.569 Y200.072 E28.3243
G1 X132.273 Y199.673 E28.4069
G1 X131.939 Y199.281 E28.4925
G1 X131.626 Y198.961 E28.5670
G1 X131.278 Y198.559 E28.6554
G1 X130.632 Y197.616 E28.8455
G1 X130.285 Y197.169 E28.9396
G1 X129.626 Y196.207 E29.1335
G1 X129.209 Y195.661 E29.2478
G1 X128.929 Y195.238 E29.3321
G1 X128.750 Y194.901 E29.3956
G1 X127.863 Y193.105 E29.7287
G1 X127.502 Y192.077 E29.9099
G1 X127.266 Y191.513 E30.0116
G1 X126.993 Y190.718 E30.1513
G1 X126.668 Y189.918 E30.2949
G1 X126.491 Y189.419 E30.3830
G1 X126.401 Y189.064 E30.4439
G1 X126.281 Y188.381 E30.5592
G1 X125.579 Y185.554 E31.0436
G1 X125.506 Y184.998 E31.1369
G1 X125.492 Y184.671 E31.1913
G1 X125.492 Y179.255 E32.0920
G1 X125.538 Y178.576 E32.2052
G1 X125.593 Y178.250 E32.2602
G1 X125.783 Y177.525 E32.3848
G1 X125.916 Y176.904 E32.4904
G1 X129.043 Y161.234 E35.1477
G1 X129.195 Y160.241 E35.3148
G1 X130.790 Y152.262 E36.6680
G1 X130.983 Y151.525 E36.7947
G1 X131.117 Y150.900 E36.9010
G1 X131.195 Y150.442 E36.9782
G1 X133.043 Y141.235 E38.5399
G1 X133.195 Y140.242 E38.7069
G1 X133.620 Y138.125 E39.0660
G1 X133.764 Y137.626 E39.1524
G1 X134.097 Y136.639 E39.3256
G1 X134.268 Y135.937 E39.4458
G1 X134.843 Y133.034 E39.9379
G1 X134.995 Y132.043 E40.1047
G1 X135.243 Y130.836 E40.3096
G1 X135.394 Y129.844 E40.4765
G1 X135.617 Y128.741 E40.6636
G1 X136.194 Y126.466 E41.0539
G1 X136.316 Y125.904 E41.1495
G1 X136.443 Y125.234 E41.2629
G1 X136.795 Y123.043 E41.6320
G1 X137.043 Y121.837 E41.8367
G1 X137.395 Y119.642 E42.2064
G1 X138.816 Y112.545 E43.4101
G1 X138.995 Y111.865 E43.5270
G1 X139.116 Y111.305 E43.6223
G1 X140.218 Y105.737 E44.5662
G1 X140.418 Y105.081 E44.6803
G1 X140.724 Y104.354 E44.8115
G1 X140.859 Y103.978 E44.8779
G1 X141.005 Y103.663 E44.9356
G1 X141.937 Y101.825 E45.2783
G1 X142.725 Y100.602 E45.5203
G0 F6000 X127.260 Y172.010
G1 F480 X127.260 Y190.418 E48.5816
G0 F6000 X129.684 Y195.689
G1 F480 X129.684 Y159.631 E54.5780
G0 F6000 X132.108 Y147.724
G1 F480 X132.108 Y198.938 E63.0949
G0 F6000 X134.532 Y201.561
G1 F480 X134.532 Y136.375 E73.9354
G0 F6000 X136.956 Y124.312
G1 F480 X136.956 Y203.346 E87.0788
G0 F6000 X139.380 Y204.968
G1 F480 X139.380 Y111.787 E102.5749
G0 F6000 X141.804 Y102.883
G1 F480 X141.804 Y206.073 E119.7355
G0 F6000 X144.228 Y206.989
G1 F480 X144.228 Y99.636 E137.5883
G0 F6000 X146.652 Y97.995
G1 F480 X146.652 Y207.770 E155.8440
G0 F6000 X149.076 Y208.224
G1 F480 X149.076 Y96.892 E174.3586
G0 F6000 X151.500 Y96.498
G1 F480 X151.500 Y208.376 E192.9640
G0 F6000 X153.924 Y208.371
G1 F480 X153.924 Y96.498 E211.5685
G0 F6000 X156.348 Y96.953
G1 F480 X156.348 Y208.325 E230.0898
G0 F6000 X158.772 Y207.796
G1 F480 X158.772 Y98.179 E248.3191
G0 F6000 X161.196 Y100.166
G1 F480 X161.196 Y206.946 E266.0767
G0 F6000 X163.620 Y206.088
G1 F480 X163.620 Y103.964 E283.0600
G0 F6000 X166.044 Y114.334
G1 F480 X166.044 Y204.807 E298.1057
G0 F6000 X168.468 Y203.123
G1 F480 X168.468 Y127.042 E310.7581
G0 F6000 X170.892 Y138.146
G1 F480 X170.892 Y201.016 E321.2134
G0 F6000 X173.316 Y198.463
G1 F480 X173.316 Y150.235 E329.2337
G0 F6000 X175.740 Y162.340
G1 F480 X175.740 Y194.863 E334.6423
G0 F6000 X178.164 Y188.874
G1 F480 X178.164 Y174.659 E337.0063
;PRINTING_TIME: 259
;REMAINING_TIME: 9933
M106 S255
;LAYER:-2
;Z:1.000
;HEIGHT:0.500
;PRINTING: NON-OBJECT
;PRINTING_ID: -1
G0 F300 Z1.000
G0 F6000 X178.577 Y174.964
;TYPE:RAFT
;WIDTH:0.800
G1 F960 X178.708 Y175.533 E337.1034
G1 X178.813 Y176.132 E337.2045
G1 X179.106 Y177.328 E337.4093
G1 X179.178 Y177.878 E337.5016
G1 X179.192 Y178.205 E337.5560
G1 X179.192 Y185.421 E338.7560
G1 X179.146 Y186.101 E338.8693
G1 X179.090 Y186.431 E338.9250
G1 X178.808 Y187.581 E339.1219
G1 X178.668 Y188.336 E339.2496
G1 X178.431 Y189.292 E339.4134
G1 X177.894 Y190.921 E339.6987
G1 X177.558 Y191.725 E339.8436
G1 X177.231 Y192.682 E340.0118
G1 X175.758 Y195.632 E340.5601
G1 X175.181 Y196.520 E340.7362
G1 X174.476 Y197.458 E340.9314
G1 X174.164 Y197.942 E341.0271
G1 X173.216 Y199.191 E341.2879
G1 X170.018 Y202.405 E342.0419
G1 X169.519 Y202.841 E342.1521
G1 X168.554 Y203.499 E342.3463
G1 X168.019 Y203.917 E342.4592
G1 X167.696 Y204.137 E342.5242
G1 X165.977 Y205.284 E342.8679
G1 X165.509 Y205.556 E342.9579
G1 X163.886 Y206.366 E343.2596
G1 X163.254 Y206.633 E343.3737
G1 X161.315 Y207.285 E343.7138
G1 X160.347 Y207.674 E343.8873
G1 X159.106 Y208.083 E344.1046
G1 X157.722 Y208.435 E344.3421
G1 X156.580 Y208.658 E344.5356
G1 X156.041 Y208.725 E344.6260
G1 X155.697 Y208.738 E344.6832
G1 X150.586 Y208.737 E345.5332
G1 X149.911 Y208.693 E345.6457
G1 X148.250 Y208.482 E345.9241
G1 X147.686 Y208.376 E346.0195
G1 X147.080 Y208.224 E346.1234
G1 X146.165 Y208.039 E346.2787
G1 X145.690 Y207.918 E346.3602
G1 X144.596 Y207.493 E346.5554
G1 X143.843 Y207.239 E346.6875
G1 X142.960 Y206.881 E346.8460
G1 X142.248 Y206.641 E346.9709
G1 X141.351 Y206.277 E347.1319
G1 X140.590 Y206.024 E347.2653
G1 X140.048 Y205.798 E347.3629
G1 X139.664 Y205.592 E347.4354
G1 X138.730 Y204.967 E347.6223
G1 X137.830 Y204.433 E347.7963
G1 X136.928 Y203.756 E347.9839
G1 X136.439 Y203.440 E348.0807
G1 X135.469 Y202.712 E348.2824
G1 X134.885 Y202.329 E348.3986
G1 X134.579 Y202.092 E348.4629
G1 X134.282 Y201.821 E348.5298
G1 X132.848 Y200.385 E348.8673
G1 X132.569 Y200.072 E348.9370
G1 X132.273 Y199.673 E349.0196
G1 X131.939 Y199.281 E349.1053
G1 X131.626 Y198.961 E349.1797
G1 X131.278 Y198.559 E349.2681
G1 X130.632 Y197.616 E349.4582
G1 X130.285 Y197.169 E349.5523
G1 X129.626 Y196.207 E349.7462
G1 X129.209 Y195.661 E349.8605
G1 X128.929 Y195.238 E349.9449
G1 X128.750 Y194.901 E350.0083
G1 X127.863 Y193.105 E350.3414
G1 X127.502 Y192.077 E350.5226
G1 X127.266 Y191.513 E350.6243
G1 X126.993 Y190.718 E350.7641
G1 X126.668 Y189.918 E350.9077
G1 X126.491 Y189.419 E350.9957
G1 X126.401 Y189.064 E351.0566
G1 X126.281 Y188.381 E351.1720
G1 X125.579 Y185.554 E351.6564
G1 X125.506 Y184.998 E351.7496
G1 X125.492 Y184.671 E351.8041
G1 X125.492 Y179.255 E352.7047
G1 X125.538 Y178.576 E352.8179
G1 X125.593 Y178.250 E352.8729
G1 X125.783 Y177.525 E352.9975
G1 X125.916 Y176.904 E353.1031
G1 X129.043 Y161.234 E355.7605
G1 X129.195 Y160.241 E355.9275
G1 X130.790 Y152.262 E357.2807
G1 X130.983 Y151.525 E357.4074
G1 X131.117 Y150.900 E357.5137
G1 X131.195 Y150.442 E357.5909
G1 X133.043 Y141.235 E359.1526
G1 X133.195 Y140.242 E359.3197
G1 X133.620 Y138.125 E359.6788
G1 X133.764 Y137.626 E359.7651
G1 X134.097 Y136.639 E359.9384
G1 X134.268 Y135.937 E360.0585
G1 X134.843 Y133.034 E360.5507
G1 X134.995 Y132.043 E360.7174
G1 X135.243 Y130.836 E360.9223
G1 X135.394 Y129.844 E361.0892
G1 X135.617 Y128.741 E361.2763
G1 X136.194 Y126.466 E361.6666
G1 X136.316 Y125.904 E361.7623
G1 X136.443 Y125.234 E361.8757
G1 X136.795 Y123.043 E362.2447
G1 X137.043 Y121.837 E362.4495
G1 X137.395 Y119.642 E362.8192
G1 X138.816 Y112.545 E364.0228
G1 X138.995 Y111.865 E364.1398
G1 X139.116 Y111.305 E364.2350
G1 X140.218 Y105.737 E365.1790
G1 X140.418 Y105.081 E365.2930
G1 X140.724 Y104.354 E365.4242
G1 X140.859 Y103.978 E365.4906
G1 X141.005 Y103.663 E365.5484
G1 X141.937 Y101.825 E365.8911
G1 X142.725 Y100.602 E366.1330
G1 X143.164 Y100.053 E366.2499
G1 X143.536 Y99.696 E366.3357
G1 X143.815 Y99.477 E366.3946
G1 X144.602 Y98.962 E366.5511
G1 X145.654 Y98.166 E366.7704
G1 X146.077 Y97.884 E366.8550
G1 X146.356 Y97.730 E366.9080
G1 X148.129 Y96.848 E367.2373
G1 X148.642 Y96.640 E367.3294
G1 X149.188 Y96.486 E367.4237
G1 X150.391 Y96.238 E367.6280
G1 X150.901 Y96.164 E367.7137
G1 X151.376 Y96.138 E367.7928
G1 X154.355 Y96.138 E368.2882
G1 X154.832 Y96.163 E368.3676
G1 X155.539 Y96.279 E368.4868
G1 X156.145 Y96.470 E368.5924
G1 X156.596 Y96.667 E368.6743
G1 X158.701 Y97.718 E369.0656
G1 X159.250 Y98.041 E369.1715
G1 X160.201 Y98.748 E369.3686
G1 X160.597 Y99.063 E369.4527
G1 X162.239 Y100.693 E369.8375
G1 X162.603 Y101.114 E369.9300
G1 X162.899 Y101.553 E370.0181
G1 X163.221 Y102.180 E370.1353
G1 X163.377 Y102.612 E370.2117
G1 X163.539 Y102.990 E370.2801
G1 X164.215 Y104.354 E370.5332
G1 X164.592 Y105.449 E370.7258
G1 X164.908 Y106.733 E370.9457
G1 X164.977 Y107.164 E371.0183
G1 X165.109 Y107.737 E371.1161
G1 X165.177 Y108.164 E371.1880
G1 X165.309 Y108.737 E371.2858
G1 X165.377 Y109.164 E371.3577
G1 X165.509 Y109.737 E371.4555
G1 X165.577 Y110.164 E371.5274
G1 X165.709 Y110.737 E371.6252
G1 X165.777 Y111.164 E371.6971
G1 X165.909 Y111.737 E371.7949
G1 X165.977 Y112.164 E371.8668
G1 X166.109 Y112.737 E371.9645
G1 X166.177 Y113.164 E372.0365
G1 X166.308 Y113.731 E372.1332
G1 X166.377 Y114.164 E372.2061
G1 X166.509 Y114.737 E372.3039
G1 X166.577 Y115.164 E372.3758
G1 X166.709 Y115.737 E372.4736
G1 X166.777 Y116.164 E372.5455
G1 X166.909 Y116.737 E372.6433
G1 X166.977 Y117.164 E372.7152
G1 X167.109 Y117.737 E372.8130
G1 X167.177 Y118.164 E372.8849
G1 X167.309 Y118.738 E372.9829
G1 X167.377 Y119.160 E373.0539
G1 X167.703 Y120.706 E373.3167
G1 X167.780 Y121.292 E373.4150
G1 X167.936 Y122.094 E373.5509
G1 X168.041 Y122.843 E373.6766
G1 X168.333 Y124.276 E373.9198
G1 X168.379 Y124.689 E373.9890
